X:1
T:Gordon Castle Waltz, The
T:Gordon Castle Waltz, The
T:Alexander Walker
C:Alexander Walker
L:1/8
M:3/4
K:C
V:1 treble 
V:1
 G | c2 G2 c2 | e2 (c2 g2) | a2 g2 a2 | c'4 G2 | c2 G2 c2 | e2 c2 e2 | a2 g2 e2 | (e2 d2) g2 | %9
 c2 G2 c2 | e2 c2 e2 | a2 g2 a2 | c'6 | c'2 g2 e2 | a2 f2 d2 | f2 d2 B2 | c4 || E2 | G2{B} A2 G2 | %19
 G2{B} A2 G2 | (G2 c2) d2 | e4 E2 | G2{B} A2 G2 | G2 A2 c2 | (f2 a2) g2 | d4 EF | (G2 A2) G2 | %27
 G2 A2 G2 | G2 c2 d2 | e4 c2 | (f2 a2) f2 | g2 e2 c2 | f2 d2 B2 | !fermata![Ec]4 || %34

